extensions/images/svgs/u_arrow-down.svg

<svg fill="none" height="13" viewBox="0 0 13 13" width="13" xmlns="http://www.w3.org/2000/svg"><path d="m9.59294 6.11542c-.05036-.05077-.11027-.09107-.17628-.11857-.066-.0275-.1368-.04166-.20831-.04166-.0715 0-.1423.01416-.20831.04166s-.12592.0678-.17627.11857l-1.78208 1.7875v-4.11125c0-.14366-.05707-.28144-.15865-.38302-.10159-.10158-.23936-.15865-.38302-.15865s-.28143.05707-.38302.15865c-.10158.10158-.15865.23936-.15865.38302v4.11125l-1.78208-1.7875c-.102-.102-.24034-.1593-.38458-.1593-.14425 0-.28259.0573-.38459.1593-.102.10199-.1593.24033-.1593.38458s.0573.28259.1593.38458l2.70834 2.70834c.05151.04931.11226.08797.17875.11375.06483.02865.13494.04346.20583.04346s.14099-.01481.20583-.04346c.06649-.02578.12724-.06444.17875-.11375l2.70834-2.70834c.05076-.05035.09106-.11026.11856-.17627.0275-.066.04166-.1368.04166-.20831s-.01416-.14231-.04166-.20831c-.0275-.06601-.0678-.12592-.11856-.17627z" fill="#353536"/></svg>

<svg width="13" height="13" viewBox="0 0 13 13" fill="none" xmlns="http://www.w3.org/2000/svg">
<path d="M9.59294 6.11542C9.54258 6.06465 9.48267 6.02435 9.41666 5.99685C9.35066 5.96935 9.27986 5.95519 9.20835 5.95519C9.13685 5.95519 9.06605 5.96935 9.00004 5.99685C8.93403 6.02435 8.87412 6.06465 8.82377 6.11542L7.04169 7.90292V3.79167C7.04169 3.64801 6.98462 3.51023 6.88304 3.40865C6.78145 3.30707 6.64368 3.25 6.50002 3.25C6.35636 3.25 6.21859 3.30707 6.117 3.40865C6.01542 3.51023 5.95835 3.64801 5.95835 3.79167V7.90292L4.17627 6.11542C4.07427 6.01342 3.93593 5.95612 3.79169 5.95612C3.64744 5.95612 3.5091 6.01342 3.4071 6.11542C3.3051 6.21741 3.2478 6.35575 3.2478 6.5C3.2478 6.64425 3.3051 6.78259 3.4071 6.88458L6.11544 9.59292C6.16695 9.64223 6.2277 9.68089 6.29419 9.70667C6.35902 9.73532 6.42913 9.75013 6.50002 9.75013C6.57091 9.75013 6.64101 9.73532 6.70585 9.70667C6.77234 9.68089 6.83309 9.64223 6.8846 9.59292L9.59294 6.88458C9.6437 6.83423 9.684 6.77432 9.7115 6.70831C9.739 6.64231 9.75316 6.57151 9.75316 6.5C9.75316 6.42849 9.739 6.35769 9.7115 6.29169C9.684 6.22568 9.6437 6.16577 9.59294 6.11542Z" fill="#353536"/>
</svg>
